artwork/resources/intui/icons/shell/filetree/android-project_dark.svg

<svg width="16" height="16" viewBox="0 0 16 16" fill="none" xmlns="http://www.w3.org/2000/svg">
<path fill-rule="evenodd" clip-rule="evenodd" d="M11.38 4.43301C11.5181 4.19386 11.8239 4.11192 12.063 4.24999C12.3022 4.38806 12.3841 4.69386 12.246 4.93301L11.124 6.87642C12.715 7.84855 13.8179 9.5409 13.9795 11.5001C14.0022 11.7754 13.7761 12 13.5 12C13.2239 12 13.0026 11.7755 12.9754 11.5007C12.7248 8.9737 10.5929 6.99999 8 6.99999C5.40709 6.99999 3.27516 8.9737 3.02462 11.5007C2.99737 11.7755 2.77614 12 2.5 12C2.22386 12 1.99783 11.7754 2.02052 11.5001C2.18201 9.5421 3.28368 7.85064 4.87307 6.87821L3.75 4.93301C3.61193 4.69386 3.69387 4.38806 3.93301 4.24999C4.17216 4.11192 4.47795 4.19386 4.61603 4.43301L5.76828 6.42877C6.45814 6.15217 7.2113 5.99999 8 5.99999C8.78747 5.99999 9.53952 6.1517 10.2285 6.42747L11.38 4.43301Z" fill="#3DDC84"/>
<path d="M2.5 11.5H13.5" stroke="#3DDC84"/>
<rect x="5" y="9" width="1" height="1" rx="0.5" fill="#3DDC84"/>
<rect x="10" y="9" width="1" height="1" rx="0.5" fill="#3DDC84"/>
</svg>

<svg width="16" height="16" viewBox="0 0 16 16" fill="none" xmlns="http://www.w3.org/2000/svg"><path fill-rule="evenodd" clip-rule="evenodd" d="M11.38 4.433a.5.5 0 1 1 .866.5l-1.122 1.943a5.999 5.999 0 0 1 2.855 4.624.47.47 0 0 1-.479.5.541.541 0 0 1-.525-.5 5 5 0 0 0-9.95 0 .541.541 0 0 1-.525.5.47.47 0 0 1-.48-.5 5.999 5.999 0 0 1 2.853-4.622L3.75 4.933a.5.5 0 0 1 .866-.5l1.152 1.996A5.984 5.984 0 0 1 8 6c.787 0 1.54.152 2.229.427l1.151-1.994z" fill="#3DDC84"/><path d="M2.5 11.5h11" stroke="#3DDC84"/><rect x="5" y="9" width="1" height="1" rx=".5" fill="#3DDC84"/><rect x="10" y="9" width="1" height="1" rx=".5" fill="#3DDC84"/></svg>
